Numix-Circle/48x48/apps/fontmatrix.svg

<svg xmlns="http://www.w3.org/2000/svg" viewBox="0 0 48 48">
 <defs>
  <linearGradient id="linearGradient3764" x1="1" x2="47" gradientUnits="userSpaceOnUse" gradientTransform="matrix(0,-1,1,0,-1.5e-6,47.999998)">
   <stop style="stop-color:#fc98a1;stop-opacity:1"/>
   <stop offset="1" style="stop-color:#fdabb5;stop-opacity:1"/>
  </linearGradient>
 </defs>
 <path d="m 36.31,5 c 5.859,4.062 9.688,10.831 9.688,18.5 0,12.426 -10.07,22.5 -22.5,22.5 -7.669,0 -14.438,-3.828 -18.5,-9.688 1.037,1.822 2.306,3.499 3.781,4.969 4.085,3.712 9.514,5.969 15.469,5.969 12.703,0 23,-10.298 23,-23 0,-5.954 -2.256,-11.384 -5.969,-15.469 C 39.81,7.306 38.132,6.037 36.31,5 Z m 4.969,3.781 c 3.854,4.113 6.219,9.637 6.219,15.719 0,12.703 -10.297,23 -23,23 -6.081,0 -11.606,-2.364 -15.719,-6.219 4.16,4.144 9.883,6.719 16.219,6.719 12.703,0 23,-10.298 23,-23 0,-6.335 -2.575,-12.06 -6.719,-16.219 z" style="opacity:0.05"/>
 <path d="m 41.28 8.781 c 3.712 4.085 5.969 9.514 5.969 15.469 0 12.703 -10.297 23 -23 23 -5.954 0 -11.384 -2.256 -15.469 -5.969 4.113 3.854 9.637 6.219 15.719 6.219 12.703 0 23 -10.298 23 -23 0 -6.081 -2.364 -11.606 -6.219 -15.719 z" style="opacity:0.1"/>
 <path d="M 31.25,2.375 C 39.865,5.529 46,13.792 46,23.505 c 0,12.426 -10.07,22.5 -22.5,22.5 -9.708,0 -17.971,-6.135 -21.12,-14.75 a 23,23 0 0 0 44.875,-7 23,23 0 0 0 -16,-21.875 z" style="opacity:0.2"/>
 <path d="M 24,1 C 36.703,1 47,11.297 47,24 47,36.703 36.703,47 24,47 11.297,47 1,36.703 1,24 1,11.297 11.297,1 24,1 Z" style="fill:url(#linearGradient3764);fill-opacity:1"/>
 <rect width="24" height="25" x="13" y="13" style="fill:#000;opacity:0.1;fill-opacity:1;stroke:none"/>
 <path d="m 40.03,7.531 c 3.712,4.084 5.969,9.514 5.969,15.469 0,12.703 -10.297,23 -23,23 C 17.045,46 11.615,43.744 7.53,40.031 11.708,44.322 17.54,47 23.999,47 c 12.703,0 23,-10.298 23,-23 0,-6.462 -2.677,-12.291 -6.969,-16.469 z" style="opacity:0.1"/>
 <path d="m 12 12 l 0 1 l 3 0 l 0 1 l -3 0 l 0 3 l 4 0 l 0 1 l 3 0 l 0 1 l -3 0 l 0 3 l 0 1 l 3 0 l 0 1 l -3 0 l 0 3 l 0 1 l 3 0 l 0 1 l -3 0 l 0 3 l 4 0 l 0 -5 l 0 -5 l 0 -5 l 4 0 l 0 1 l 3 0 l 0 1 l -3 0 l 0 3 l 0 1 l 3 0 l 0 1 l -3 0 l 0 3 l 4 0 l 0 -5 l 0 -5 l 0 -5 l -4 0 l -4 0 l -4 0 l -4 0 z m 4 1 l 3 0 l 0 1 l -3 0 l 0 -1 z m 4 0 l 3 0 l 0 1 l -3 0 l 0 -1 z m 4 0 l 3 0 l 0 1 l -3 0 l 0 -1 z m -11 2 l 2 0 l 0 1 l -2 0 l 0 -1 z m 4 0 l 2 0 l 0 1 l -2 0 l 0 -1 z m 4 0 l 2 0 l 0 1 l -2 0 l 0 -1 z m 4 0 l 2 0 l 0 1 l -2 0 l 0 -1 z m -8 5 l 2 0 l 0 1 l -2 0 l 0 -1 z m 8 0 l 2 0 l 0 1 l -2 0 l 0 -1 z m -8 5 l 2 0 l 0 1 l -2 0 l 0 -1 z m 8 0 l 2 0 l 0 1 l -2 0 l 0 -1 z m -8 5 l 2 0 l 0 1 l -2 0 l 0 -1 z" style="fill:#a30b0b;fill-opacity:1;stroke:none;fill-rule:evenodd"/>
 <path d="m 28 12 l 0 1 l 3 0 l 0 1 l -3 0 l 0 3 l 4 0 l 4 0 l 0 -5 l -4 0 l -4 0 z m 4 1 l 3 0 l 0 1 l -3 0 l 0 -1 z m -3 2 l 2 0 l 0 1 l -2 0 l 0 -1 z m 4 0 l 2 0 l 0 1 l -2 0 l 0 -1 z m -21 2 l 0 1 l 3 0 l 0 1 l -3 0 l 0 3 l 0 1 l 3 0 l 0 1 l -3 0 l 0 3 l 0 1 l 3 0 l 0 1 l -3 0 l 0 3 l 0 1 l 3 0 l 0 1 l -3 0 l 0 3 l 4 0 l 4 0 l 4 0 l 4 0 l 4 0 l 0 -5 l 0 -5 l 0 -5 l -4 0 l 0 1 l 3 0 l 0 1 l -3 0 l 0 3 l -4 0 l 0 -5 l 0 -5 l -4 0 l 0 1 l 3 0 l 0 1 l -3 0 l 0 3 l 0 1 l 3 0 l 0 1 l -3 0 l 0 3 l 0 1 l 3 0 l 0 1 l -3 0 l 0 3 l -4 0 l 0 -5 l 0 -5 l 0 -5 l -4 0 z m 1 3 l 2 0 l 0 1 l -2 0 l 0 -1 z m 8 0 l 2 0 l 0 1 l -2 0 l 0 -1 z m -8 5 l 2 0 l 0 1 l -2 0 l 0 -1 z m 8 0 l 2 0 l 0 1 l -2 0 l 0 -1 z m 8 0 l 2 0 l 0 1 l -2 0 l 0 -1 z m -5 3 l 3 0 l 0 1 l -3 0 l 0 -1 z m 4 0 l 3 0 l 0 1 l -3 0 l 0 -1 z m -15 2 l 2 0 l 0 1 l -2 0 l 0 -1 z m 8 0 l 2 0 l 0 1 l -2 0 l 0 -1 z m 4 0 l 2 0 l 0 1 l -2 0 l 0 -1 z m 4 0 l 2 0 l 0 1 l -2 0 l 0 -1 z m -13 3 l 3 0 l 0 1 l -3 0 l 0 -1 z m 4 0 l 3 0 l 0 1 l -3 0 l 0 -1 z m 4 0 l 3 0 l 0 1 l -3 0 l 0 -1 z m 4 0 l 3 0 l 0 1 l -3 0 l 0 -1 z m -15 2 l 2 0 l 0 1 l -2 0 l 0 -1 z m 4 0 l 2 0 l 0 1 l -2 0 l 0 -1 z m 4 0 l 2 0 l 0 1 l -2 0 l 0 -1 z m 4 0 l 2 0 l 0 1 l -2 0 l 0 -1 z m 4 0 l 2 0 l 0 1 l -2 0 l 0 -1 z" style="fill:#f9f9f9;fill-opacity:1;stroke:none;fill-rule:evenodd"/>
 <path d="m 28 17 l 0 1 l 3 0 l 0 1 l -3 0 l 0 3 l 4 0 l 0 1 l 3 0 l 0 1 l -3 0 l 0 3 l 0 1 l 3 0 l 0 1 l -3 0 l 0 3 l 0 1 l 3 0 l 0 1 l -3 0 l 0 3 l 4 0 l 0 -5 l 0 -5 l 0 -5 l 0 -5 l -4 0 l -4 0 z m 4 1 l 3 0 l 0 1 l -3 0 l 0 -1 z m -3 2 l 2 0 l 0 1 l -2 0 l 0 -1 z m 4 0 l 2 0 l 0 1 l -2 0 l 0 -1 z m 0 5 l 2 0 l 0 1 l -2 0 l 0 -1 z m 0 5 l 2 0 l 0 1 l -2 0 l 0 -1 z m 0 5 l 2 0 l 0 1 l -2 0 l 0 -1 z" style="fill:#ee1c23;fill-opacity:1;stroke:none;fill-rule:evenodd"/>
</svg>

<?xml version="1.0" encoding="UTF-8" standalone="no"?>
<svg
   xmlns:dc="http://purl.org/dc/elements/1.1/"
   xmlns:cc="http://creativecommons.org/ns#"
   xmlns:rdf="http://www.w3.org/1999/02/22-rdf-syntax-ns#"
   xmlns:svg="http://www.w3.org/2000/svg"
   xmlns="http://www.w3.org/2000/svg"
   xmlns:sodipodi="http://sodipodi.sourceforge.net/DTD/sodipodi-0.dtd"
   xmlns:inkscape="http://www.inkscape.org/namespaces/inkscape"
   viewBox="0 0 48 48"
   id="svg2"
   version="1.1"
   inkscape:version="0.91 r13725"
   sodipodi:docname="fontmatrix.svg">
  <metadata
     id="metadata73">
    <rdf:RDF>
      <cc:Work
         rdf:about="">
        <dc:format>image/svg+xml</dc:format>
        <dc:type
           rdf:resource="http://purl.org/dc/dcmitype/StillImage" />
        <dc:title></dc:title>
      </cc:Work>
    </rdf:RDF>
  </metadata>
  <sodipodi:namedview
     pagecolor="#ffffff"
     bordercolor="#666666"
     borderopacity="1"
     objecttolerance="10"
     gridtolerance="10"
     guidetolerance="10"
     inkscape:pageopacity="0"
     inkscape:pageshadow="2"
     inkscape:window-width="1280"
     inkscape:window-height="773"
     id="namedview71"
     showgrid="true"
     inkscape:zoom="11.354167"
     inkscape:cx="23.999999"
     inkscape:cy="23.999999"
     inkscape:window-x="0"
     inkscape:window-y="27"
     inkscape:window-maximized="1"
     inkscape:current-layer="svg2"
     showguides="true">
    <inkscape:grid
       type="xygrid"
       id="grid4201" />
  </sodipodi:namedview>
  <defs
     id="defs4">
    <linearGradient
       id="linearGradient3764"
       x1="1"
       x2="47"
       gradientUnits="userSpaceOnUse"
       gradientTransform="matrix(0,-1,1,0,-1.5e-6,47.999998)">
      <stop
         style="stop-color:#fc98a1;stop-opacity:1"
         id="stop7" />
      <stop
         offset="1"
         style="stop-color:#fdabb5;stop-opacity:1"
         id="stop9" />
    </linearGradient>
  </defs>
  <path
     inkscape:connector-curvature="0"
     id="path23"
     style="opacity:0.05"
     d="m 36.31,5 c 5.859,4.062 9.688,10.831 9.688,18.5 0,12.426 -10.07,22.5 -22.5,22.5 -7.669,0 -14.438,-3.828 -18.5,-9.688 1.037,1.822 2.306,3.499 3.781,4.969 4.085,3.712 9.514,5.969 15.469,5.969 12.703,0 23,-10.298 23,-23 0,-5.954 -2.256,-11.384 -5.969,-15.469 C 39.81,7.306 38.132,6.037 36.31,5 Z m 4.969,3.781 c 3.854,4.113 6.219,9.637 6.219,15.719 0,12.703 -10.297,23 -23,23 -6.081,0 -11.606,-2.364 -15.719,-6.219 4.16,4.144 9.883,6.719 16.219,6.719 12.703,0 23,-10.298 23,-23 0,-6.335 -2.575,-12.06 -6.719,-16.219 z" />
  <path
     inkscape:connector-curvature="0"
     id="path25"
     style="opacity:0.1"
     d="m 41.28,8.781 c 3.712,4.085 5.969,9.514 5.969,15.469 0,12.703 -10.297,23 -23,23 -5.954,0 -11.384,-2.256 -15.469,-5.969 4.113,3.854 9.637,6.219 15.719,6.219 12.703,0 23,-10.298 23,-23 0,-6.081 -2.364,-11.606 -6.219,-15.719 z" />
  <path
     inkscape:connector-curvature="0"
     id="path27"
     style="opacity:0.2"
     d="M 31.25,2.375 C 39.865,5.529 46,13.792 46,23.505 c 0,12.426 -10.07,22.5 -22.5,22.5 -9.708,0 -17.971,-6.135 -21.12,-14.75 a 23,23 0 0 0 44.875,-7 23,23 0 0 0 -16,-21.875 z" />
  <path
     inkscape:connector-curvature="0"
     id="path31"
     style="fill:url(#linearGradient3764);fill-opacity:1"
     d="M 24,1 C 36.703,1 47,11.297 47,24 47,36.703 36.703,47 24,47 11.297,47 1,36.703 1,24 1,11.297 11.297,1 24,1 Z" />
  <rect
     style="opacity:0.1;fill:#000000;fill-opacity:1;stroke:none"
     id="rect4208"
     width="24"
     height="25"
     x="13"
     y="13" />
  <path
     inkscape:connector-curvature="0"
     id="path69"
     style="opacity:0.1"
     d="m 40.03,7.531 c 3.712,4.084 5.969,9.514 5.969,15.469 0,12.703 -10.297,23 -23,23 C 17.045,46 11.615,43.744 7.53,40.031 11.708,44.322 17.54,47 23.999,47 c 12.703,0 23,-10.298 23,-23 0,-6.462 -2.677,-12.291 -6.969,-16.469 z" />
  <path
     style="fill:#a30b0b;fill-opacity:1;fill-rule:evenodd;stroke:none;stroke-width:1px;stroke-linecap:butt;stroke-linejoin:miter;stroke-opacity:1"
     d="M 12 12 L 12 13 L 15 13 L 15 14 L 12 14 L 12 17 L 16 17 L 16 18 L 19 18 L 19 19 L 16 19 L 16 22 L 16 23 L 19 23 L 19 24 L 16 24 L 16 27 L 16 28 L 19 28 L 19 29 L 16 29 L 16 32 L 20 32 L 20 27 L 20 22 L 20 17 L 24 17 L 24 18 L 27 18 L 27 19 L 24 19 L 24 22 L 24 23 L 27 23 L 27 24 L 24 24 L 24 27 L 28 27 L 28 22 L 28 17 L 28 12 L 24 12 L 20 12 L 16 12 L 12 12 z M 16 13 L 19 13 L 19 14 L 16 14 L 16 13 z M 20 13 L 23 13 L 23 14 L 20 14 L 20 13 z M 24 13 L 27 13 L 27 14 L 24 14 L 24 13 z M 13 15 L 15 15 L 15 16 L 13 16 L 13 15 z M 17 15 L 19 15 L 19 16 L 17 16 L 17 15 z M 21 15 L 23 15 L 23 16 L 21 16 L 21 15 z M 25 15 L 27 15 L 27 16 L 25 16 L 25 15 z M 17 20 L 19 20 L 19 21 L 17 21 L 17 20 z M 25 20 L 27 20 L 27 21 L 25 21 L 25 20 z M 17 25 L 19 25 L 19 26 L 17 26 L 17 25 z M 25 25 L 27 25 L 27 26 L 25 26 L 25 25 z M 17 30 L 19 30 L 19 31 L 17 31 L 17 30 z "
     id="path4899" />
  <path
     style="fill:#f9f9f9;fill-opacity:1;fill-rule:evenodd;stroke:none;stroke-width:1px;stroke-linecap:butt;stroke-linejoin:miter;stroke-opacity:1"
     d="M 28 12 L 28 13 L 31 13 L 31 14 L 28 14 L 28 17 L 32 17 L 36 17 L 36 12 L 32 12 L 28 12 z M 32 13 L 35 13 L 35 14 L 32 14 L 32 13 z M 29 15 L 31 15 L 31 16 L 29 16 L 29 15 z M 33 15 L 35 15 L 35 16 L 33 16 L 33 15 z M 12 17 L 12 18 L 15 18 L 15 19 L 12 19 L 12 22 L 12 23 L 15 23 L 15 24 L 12 24 L 12 27 L 12 28 L 15 28 L 15 29 L 12 29 L 12 32 L 12 33 L 15 33 L 15 34 L 12 34 L 12 37 L 16 37 L 20 37 L 24 37 L 28 37 L 32 37 L 32 32 L 32 27 L 32 22 L 28 22 L 28 23 L 31 23 L 31 24 L 28 24 L 28 27 L 24 27 L 24 22 L 24 17 L 20 17 L 20 18 L 23 18 L 23 19 L 20 19 L 20 22 L 20 23 L 23 23 L 23 24 L 20 24 L 20 27 L 20 28 L 23 28 L 23 29 L 20 29 L 20 32 L 16 32 L 16 27 L 16 22 L 16 17 L 12 17 z M 13 20 L 15 20 L 15 21 L 13 21 L 13 20 z M 21 20 L 23 20 L 23 21 L 21 21 L 21 20 z M 13 25 L 15 25 L 15 26 L 13 26 L 13 25 z M 21 25 L 23 25 L 23 26 L 21 26 L 21 25 z M 29 25 L 31 25 L 31 26 L 29 26 L 29 25 z M 24 28 L 27 28 L 27 29 L 24 29 L 24 28 z M 28 28 L 31 28 L 31 29 L 28 29 L 28 28 z M 13 30 L 15 30 L 15 31 L 13 31 L 13 30 z M 21 30 L 23 30 L 23 31 L 21 31 L 21 30 z M 25 30 L 27 30 L 27 31 L 25 31 L 25 30 z M 29 30 L 31 30 L 31 31 L 29 31 L 29 30 z M 16 33 L 19 33 L 19 34 L 16 34 L 16 33 z M 20 33 L 23 33 L 23 34 L 20 34 L 20 33 z M 24 33 L 27 33 L 27 34 L 24 34 L 24 33 z M 28 33 L 31 33 L 31 34 L 28 34 L 28 33 z M 13 35 L 15 35 L 15 36 L 13 36 L 13 35 z M 17 35 L 19 35 L 19 36 L 17 36 L 17 35 z M 21 35 L 23 35 L 23 36 L 21 36 L 21 35 z M 25 35 L 27 35 L 27 36 L 25 36 L 25 35 z M 29 35 L 31 35 L 31 36 L 29 36 L 29 35 z "
     id="path4899-6" />
  <path
     style="fill:#ee1c23;fill-opacity:1;fill-rule:evenodd;stroke:none;stroke-width:1px;stroke-linecap:butt;stroke-linejoin:miter;stroke-opacity:1"
     d="M 28 17 L 28 18 L 31 18 L 31 19 L 28 19 L 28 22 L 32 22 L 32 23 L 35 23 L 35 24 L 32 24 L 32 27 L 32 28 L 35 28 L 35 29 L 32 29 L 32 32 L 32 33 L 35 33 L 35 34 L 32 34 L 32 37 L 36 37 L 36 32 L 36 27 L 36 22 L 36 17 L 32 17 L 28 17 z M 32 18 L 35 18 L 35 19 L 32 19 L 32 18 z M 29 20 L 31 20 L 31 21 L 29 21 L 29 20 z M 33 20 L 35 20 L 35 21 L 33 21 L 33 20 z M 33 25 L 35 25 L 35 26 L 33 26 L 33 25 z M 33 30 L 35 30 L 35 31 L 33 31 L 33 30 z M 33 35 L 35 35 L 35 36 L 33 36 L 33 35 z "
     id="path4899-6-2" />
</svg>
